X:1
T:Title
%%score { ( 1 4 ) | ( 2 3 ) }
L:1/8
M:6/8
K:Eb
V:1 treble nm="Grand Piano"
V:4 treble 
V:2 bass 
V:3 bass 
V:1
 z3 z2[Q:1/4=84] B | BGc B2 G | GE[CEA] [B,EG]2 [B,EG] | [B,G]F[G,_D=E] [A,=DF]2 [DA] | %4
 AG_G =G2 B | BGc B2 G | GE[CEA] [B,EG]2 [B,EG] | [B,G]F[G,_D=E] [A,=DF]2 [B,DG] | E6 | G6 | A6 | %11
 =A6 | B6 | c3 [Ad]2 [Ad] |[M:7/8] [Ge]3 [_D=EB]3 [CFA] |[M:3/4] [EG]3 [B,DG]2 [A,DF] | [G,E]6 |] %17
V:2
 z3 z2 [E,G,E] | [E,E]-[E,B,E][E,A,E] [E,G,E]2 [E,B,E] | [B,E]G,E, E,2 E, | z A,B,, B,,2 [B,,F,] | %4
 CB,[E,=A,E] [E,B,E]2 [E,G,E] | G,B,[E,A,E] [E,G,E]2 [E,B,E] | .[B,E]3 z3 | z A,B,, B,,2 B,, | %8
 [E,G,]6 | [E,B,E][E,B,][E,B,] [E,B,]3 | [F,B,D][F,B,][F,B,] [F,B,]3 | [F,CE][F,C][F,C] [F,C]3 | %12
 [G,B,E][G,B,][G,B,] [G,B,]3 | [A,E]3 [F,B,]2 [F,B,] |[M:7/8] [E,B,]3 G,3 A, | %15
[M:3/4] B,3 B,,2 B,, | E,6 |] %17
V:3
 x6 | .G,3 z3 | .E,3 z3 | .B,,3 z3 | .[E,E]3 z3 | .[E,E]3 z3 | E,-[E,G,]E, E,2 E, | .B,,3 z3 | x6 | %9
 x6 | x6 | x6 | x6 | x6 |[M:7/8] x7 |[M:3/4] x6 | x6 |] %17
V:4
 x6 | x6 | x6 | .D3 z3 | x6 | x6 | x6 | .D3 z3 | x6 | z EE E3 | z DD D3 | z EE E3 | z EE E3 | x6 | %14
[M:7/8] x7 |[M:3/4] x6 | x6 |] %17

